Newaita/actions/24/view-certificate-export-server.svg

<svg height="24" viewBox="0 0 24 24" width="24" xmlns="http://www.w3.org/2000/svg"><g fill="#424242"><path d="m3.96875 4.15625c-1.097656 0-1.984375.886719-1.984375 1.984375v11.90625c0 1.101563.886719 1.984375 1.984375 1.984375h5.953125v-1.984375h-4.960937c-.550782 0-.992188-.441406-.992188-.992187v-9.921876c0-.550781.441406-.992187.992188-.992187h13.890624c.550782 0 .992188.441406.992188.992187v5.953126h1.988281v-6.945313c0-1.097656-.886719-1.984375-1.988281-1.984375zm0 0"/><path d="m14.140625 8.125h3.472656c.136719 0 .246094.113281.246094.25v.496094c0 .136718-.109375.246094-.246094.246094h-3.472656c-.136719 0-.25-.109376-.25-.246094v-.496094c0-.136719.113281-.25.25-.25zm0 0"/><path d="m14.140625 11.101562h3.472656c.136719 0 .246094.113282.246094.25v.496094c0 .136719-.109375.246094-.246094.246094h-3.472656c-.136719 0-.25-.109375-.25-.246094v-.496094c0-.136718.113281-.25.25-.25zm0 0"/><path d="m17.859375 15.070312v1.488282h-5.492187c-.273438 0-.496094.222656-.496094.496094v.992187c0 .277344.222656.496094.496094.496094h5.492187v1.488281l3.972656-2.480469zm0 0"/><path d="m6.945312 8.621094c-.550781 0-.992187.445312-.992187.992187v4.960938c0 .550781.441406.992187.992187.992187h3.96875c.550782 0 .992188-.441406.992188-.992187v-4.960938c0-.546875-.441406-.992187-.992188-.992187zm1.984376.992187h1.488281c.277343 0 .496093.222657.496093.496094v1.488281h-1.984374zm-1.984376 2.976563h3.96875v1.488281c0 .277344-.21875.496094-.496093.496094h-2.976563c-.273437 0-.496094-.21875-.496094-.496094zm0 0"/></g></svg>

<?xml version="1.0" encoding="UTF-8"?>
<svg xmlns="http://www.w3.org/2000/svg" xmlns:xlink="http://www.w3.org/1999/xlink" width="24px" height="24px" viewBox="0 0 24 24" version="1.1">
<g id="surface1">
<path style=" stroke:none;fill-rule:nonzero;fill:rgb(25.882354%,25.882354%,25.882354%);fill-opacity:1;" d="M 3.96875 4.15625 C 2.871094 4.15625 1.984375 5.042969 1.984375 6.140625 L 1.984375 18.046875 C 1.984375 19.148438 2.871094 20.03125 3.96875 20.03125 L 9.921875 20.03125 L 9.921875 18.046875 L 4.960938 18.046875 C 4.410156 18.046875 3.96875 17.605469 3.96875 17.054688 L 3.96875 7.132812 C 3.96875 6.582031 4.410156 6.140625 4.960938 6.140625 L 18.851562 6.140625 C 19.402344 6.140625 19.84375 6.582031 19.84375 7.132812 L 19.84375 13.085938 L 21.832031 13.085938 L 21.832031 6.140625 C 21.832031 5.042969 20.945312 4.15625 19.84375 4.15625 Z M 3.96875 4.15625 "/>
<path style=" stroke:none;fill-rule:nonzero;fill:rgb(25.882354%,25.882354%,25.882354%);fill-opacity:1;" d="M 14.140625 8.125 L 17.613281 8.125 C 17.75 8.125 17.859375 8.238281 17.859375 8.375 L 17.859375 8.871094 C 17.859375 9.007812 17.75 9.117188 17.613281 9.117188 L 14.140625 9.117188 C 14.003906 9.117188 13.890625 9.007812 13.890625 8.871094 L 13.890625 8.375 C 13.890625 8.238281 14.003906 8.125 14.140625 8.125 Z M 14.140625 8.125 "/>
<path style=" stroke:none;fill-rule:nonzero;fill:rgb(25.882354%,25.882354%,25.882354%);fill-opacity:1;" d="M 14.140625 11.101562 L 17.613281 11.101562 C 17.75 11.101562 17.859375 11.214844 17.859375 11.351562 L 17.859375 11.847656 C 17.859375 11.984375 17.75 12.09375 17.613281 12.09375 L 14.140625 12.09375 C 14.003906 12.09375 13.890625 11.984375 13.890625 11.847656 L 13.890625 11.351562 C 13.890625 11.214844 14.003906 11.101562 14.140625 11.101562 Z M 14.140625 11.101562 "/>
<path style=" stroke:none;fill-rule:nonzero;fill:rgb(25.882354%,25.882354%,25.882354%);fill-opacity:1;" d="M 17.859375 15.070312 L 17.859375 16.558594 L 12.367188 16.558594 C 12.09375 16.558594 11.871094 16.78125 11.871094 17.054688 L 11.871094 18.046875 C 11.871094 18.324219 12.09375 18.542969 12.367188 18.542969 L 17.859375 18.542969 L 17.859375 20.03125 L 21.832031 17.550781 Z M 17.859375 15.070312 "/>
<path style=" stroke:none;fill-rule:nonzero;fill:rgb(25.882354%,25.882354%,25.882354%);fill-opacity:1;" d="M 6.945312 8.621094 C 6.394531 8.621094 5.953125 9.066406 5.953125 9.613281 L 5.953125 14.574219 C 5.953125 15.125 6.394531 15.566406 6.945312 15.566406 L 10.914062 15.566406 C 11.464844 15.566406 11.90625 15.125 11.90625 14.574219 L 11.90625 9.613281 C 11.90625 9.066406 11.464844 8.621094 10.914062 8.621094 Z M 8.929688 9.613281 L 10.417969 9.613281 C 10.695312 9.613281 10.914062 9.835938 10.914062 10.109375 L 10.914062 11.597656 L 8.929688 11.597656 Z M 6.945312 12.589844 L 10.914062 12.589844 L 10.914062 14.078125 C 10.914062 14.355469 10.695312 14.574219 10.417969 14.574219 L 7.441406 14.574219 C 7.167969 14.574219 6.945312 14.355469 6.945312 14.078125 Z M 6.945312 12.589844 "/>
</g>
</svg>
